X: 220
T: Bitwa pod Ostro??k?
C: Józef Stefani
L: 1/16
M: 2/4
N: Derived from pl-wtm--r-1416--001_stefani-jozef--bitwa-pod-ostroleka.krn
%%staves {1 2}
V: 1 clef=treble
V: 2 clef=bass
K: G
[V:1] GGGG G2E2 | 
[V:2] [G,,2G,2][D,2G,2B,2][D,2G,2B,2][D,2G,2B,2] | 
[V:1] GGGG G2D2 | 
[V:2] [G,,2G,2][D,2G,2B,2][D,2G,2B,2][D,2G,2B,2] | 
[V:1] GGGG G2D2 | 
[V:2] [G,,2G,2][D,2G,2B,2][D,2G,2B,2][D,2G,2B,2] | 
[V:1] d8 | 
[V:2] [G,,2G,2][D,2G,2B,2][D,2G,2B,2][D,2G,2B,2] | 
[V:1] dddd f2d2 | 
[V:2] [D,,2D,2] [D,2F,2A,2][D,2F,2A,2][D,2F,2A,2] | 
[V:1] dddd f2d2 | 
[V:2] [D,,2D,2] [D,2F,2A,2][D,2F,2A,2][D,2F,2A,2] | 
[V:1] dddd A2F2 | 
[V:2] [D,,2D,2] [D,2F,2A,2][D,2F,2A,2][D,2F,2A,2] | 
[V:1] D8 ||  
[V:2] [D,,2D,2] [D,2F,2A,2][D,2F,2A,2][D,2F,2A,2] ||  
[V:1] BBBB B2B2 | 
[V:2] [^D,2F,2A,2B,2][D,2F,2A,2B,2][D,2F,2A,2B,2][D,2F,2A,2B,2] | 
[V:1] BBBB B2B2 | 
[V:2] [E,2G,2B,2][E,2G,2B,2][E,2G,2B,2][E,2G,2B,2] | 
[V:1] BBBB B2B2 | 
[V:2] [^D,2F,2A,2B,2][D,2F,2A,2B,2][D,2F,2A,2B,2][D,2F,2A,2B,2] | 
[V:1] e8 | 
[V:2] [E,2G,2B,2][E,2G,2B,2][E,2G,2B,2][E,2G,2B,2] | 
[V:1] AAAA A2A2 | 
[V:2] [^C,2E,2G,2A,2][C,2E,2G,2A,2][C,2E,2G,2A,2][C,2E,2G,2A,2] | 
[V:1] AAAA A2A2 | 
[V:2] [D,2F,2A,2][D,2F,2A,2][D,2F,2A,2][D,2F,2A,2] | 
[V:1] dddd A2F2 | 
[V:2] [D,2F,2A,2=C2][D,2F,2A,2C2][D,2F,2A,2C2][D,2F,2A,2C2] | 
[V:1] [D8G8] ||  
[V:2] [G,2B,2][G,2B,2][G,4B,4] ||  
[V:1]  [K:C] !arpeggio![E4G4c4]C,,4 | 
[V:2]  [K:C] [C,E,]G,[C,E,]G, [C,E,]G,[C,E,]G, | 
[V:1] !arpeggio![G4c4e4]E,,4 | 
[V:2] [C,E,]G,[C,E,]G, [C,E,]G,[C,E,]G, | 
[V:1] !arpeggio![c4e4g4]G,,4 | 
[V:2] [C,E,]G,[C,E,]G, [C,E,]G,[C,E,]G, | 
[V:1] E,,4C,,4 ||  
[V:2] [C,E,]G,[C,E,]G, [C,E,]G,[C,E,]G, ||  
[V:1] G,,,2 f'e' e'd'd'c' | 
[V:2] [B,,D,F,]G,[B,,D,F,]G, [B,,D,F,]G,[B,,D,F,]G, | 
[V:1] c'bba aggf | 
[V:2] [B,,D,F,]G,[B,,D,F,]G, [B,,D,F,]G,[B,,D,F,]G, | 
[V:1] feed dccB | 
[V:2] [B,,D,F,]G,[B,,D,F,]G, [B,,D,F,]G,[B,,D,F,]G, | 
[V:1] BAAG GFED | 
[V:2] [B,,D,F,]G,[B,,D,F,]G, [B,,D,F,]G,[B,,D,F,]G, | 
[V:1] C2[ec']c [ec']c[ec']c | 
[V:2] [C,4E,4][E,2E2][D,2D2] | 
[V:1] [ec']c[ec']c[ec']c[ec']c | 
[V:2] [C,2C2][B,,2B,2][A,,2A,2][^G,,2^G,2] | 
[V:1] [eac']c[eac']c[eac']c[eac']c | 
[V:2] [A,,4A,4][C,2C2][B,,2B,2] | 
[V:1] [eac']c[eac']c[eac']c[eac']c | 
[V:2] [A,,2A,2][=G,,2=G,2][F,,2F,2][E,,2E,2] | 
[V:1] [ac'd']d[ac'd']d[ac'd']d[ac'd']d | 
[V:2] F,,2F,2F,,2F,2 | 
[V:1] [^dac'^d']^d[dac'd']^d[dac'd']^d[dac'd']^d | 
[V:2] ^F,,2^F,2F,,2F,2 | 
[V:1] [gc'e']e[gc'e']e[gc'e']e[gc'e']e | 
[V:2] G,,2G,2G,,2G,2 | 
[V:1] [gbd']d[gbd']d[gbd']d[gbd']d | 
[V:2] G,,2G,2G,,2G,2 | 
[V:1] [egc']c[egc']c[egc']c[egc']c | 
[V:2] C,4[E,2E2][D,2D2] | 
[V:1] [egc']c[egc']c[egc']c[egc']c | 
[V:2] [C,2C2][B,,2B,2][A,,2A,2][^G,,2^G,2] | 
[V:1] [eac']c[eac']c[eac']c[eac']c | 
[V:2] [A,,4A,4][C,2C2][B,,2B,2] | 
[V:1] [eac']c[eac']c[eac']c[eac']c | 
[V:2] [A,,2A,2][=G,,2=G,2][F,,2F,2][E,,2E,2] | 
[V:1] [ac'd']d[ac'd']d[ac'd']d[ac'd']d | 
[V:2] F,,2F,2F,,2F,2 | 
[V:1] [ac'^d']^d[ac'd']^d[ac'd']^d[ac'd']^d | 
[V:2] ^F,,2^F,2F,,2F,2 | 
[V:1] [gc'e']e[gc'e']e[gc'e']e[gc'e']e | 
[V:2] G,,2G,2G,,2G,2 | 
[V:1] [gbd']d[gbd']d[gbd']d[gbd']d | 
[V:2] G,,2G,2G,,2G,2 | 
[V:1] [c8e8g8c'8] | 
[V:2] C,,C,C,,C, C,,C,C,,C, | 
[V:1] z8 | 
[V:2] C,,C,C,,C, C,,C,C,,C, | 
[V:1] !arpeggio![B4d4f4_a4]!arpeggio![B4d4f4a4] | 
[V:2] C,,C,C,,C, C,,C,C,,C, | 
[V:1] !arpeggio![c4_e4g4]!arpeggio![_A4B4d4f4] | 
[V:2] C,,C,C,,C, C,,C,C,,C, | 
[V:1] !arpeggio![G4c4_e4]!arpeggio![F4_A4B4d4] | 
[V:2] C,,C,C,,C, C,,C,C,,C, | 
[V:1] !arpeggio![_E4G4c4]!arpeggio![D4F4_A4B4] | 
[V:2] C,,C,C,,C, C,,C,C,,C, | 
[V:1] !arpeggio![_E8G8c8] | 
[V:2] C,,C,C,,C, C,,C,C,,C, | 
[V:1] z8 | 
[V:2] C,,C,C,,C, C,,C,C,,C, | 
[V:1] !arpeggio![B,4D4F4_A4]!arpeggio![B,4D4F4A4] | 
[V:2] C,,C,C,,C, C,,C,C,,C, | 
[V:1] !arpeggio![C4_E4G4]!arpeggio![_A,4B,4D4F4] | 
[V:2] C,,C,C,,C, C,,C,C,,C, | 
[V:1] !arpeggio![G,4C4_E4]!arpeggio![F,4_A,4B,4D4] | 
[V:2] C,,C,C,,C, C,,C,C,,C, | 
[V:1] !arpeggio![_E,4G,4C4]!arpeggio![D,4F,4_A,4B,4] | 
[V:2] C,,C,C,,C, C,,C,C,,C, | 
[V:1] !arpeggio![_E,4G,4C4]z4 | 
[V:2] C,,C,C,,C, C,,C,C,,C, | 
[V:1] !arpeggio![G,8C8_E8] | 
[V:2] C,,C,C,,C, C,,C,C,,C, | 
[V:1] !arpeggio![C8_E8G8] | 
[V:2] C,,C,C,,C, C,,C,C,,C, | 
[V:1] !arpeggio![G,8C8_E8] | 
[V:2] C,,C,C,,C, C,,C,C,,C, | 
[V:1] !arpeggio![_E,8G,8C8] | 
[V:2] C,,C,C,,C, C,,C,C,,C, | 
[V:1] !fermata![_E,4G,4C4] ||  
[V:2] !fermata![C,,4C,4] ||  
[V:1] [M:4/4](3G2G2G2 | 
[V:2] [M:4/4]z4 | 
[V:1] c4(3G2G2G2c4(3G2G2G2 | 
[V:2] z16 | 
[V:1] c2>c2G2>G2 E2>E2C3C | 
[V:2] z16 | 
[V:1] G4(3G2G2G2G4G4 | 
[V:2] z16 | 
[V:1] G8z8 ||  
[V:2] z16 ||  
[V:1] [M:2/4][e2g2][eg][eg] [e2g2][^d2^f2] | 
[V:2] [M:2/4][C,2E,2G,2][C,E,G,][C,E,G,] [C,2E,2G,2][^D,2^F,2A,2] | 
[V:1] [e2g2][eg][eg] [e2g2][^d2^f2] | 
[V:2] [C,2E,2G,2][C,E,G,][C,E,G,] [C,2E,2G,2][^D,2^F,2A,2] | 
[V:1] [e2g2][^d2^f2][e2g2][d2f2] | 
[V:2] [C,2E,2G,2][C,2^F,2A,2][C,2E,2G,2][C,2F,2A,2] | 
[V:1] [e4g4][e4c'4] | 
[V:2] [C,2E,2G,2][C,2E,2G,2][C,4E,4G,4] | 
[V:1] d2d2 dg^fg | 
[V:2] [D2F2]G,2[D2F2]G,2 | 
[V:1] c2c2 ce^de | 
[V:2] [C2E2]G,2[C2E2]G,2 | 
[V:1] d2d2 dcA^F | 
[V:2] [G,2B,2]D,2 [^F,2A,2C2]D,2 | 
[V:1] G2G2G4 :|]|:  
[V:2] [G,2B,2]D,2[G,4B,4] :|]|:  
[V:1] G2GG GABc | 
[V:2] [B,2D2]G,2[B,2D2]G,2 | 
[V:1] d2e2f3d | 
[V:2] [C2E2]G,2[C2E2]G,2 | 
[V:1] c2cc cdef | 
[V:2] [C2E2]G,2[C2E2]G,2 | 
[V:1] g2e2[e4c'4] | 
[V:2] [C2E2]G,2[C2E2]G,2 | 
[V:1] G2GG GABc | 
[V:2] [B,2D2]G,2[B,2D2]G,2 | 
[V:1] d2e2f3d | 
[V:2] [B,2D2]G,2[B,2D2]G,2 | 
[V:1] [c2e2][c2e2] [G2d2][G2d2] |[1 
[V:2] [C2E2]G,2[B,2F2]G,2 | 
[V:1] [E2c2][E2c2][E4c4] :|][2 
[V:2] C2G,2C,4 :|]  
[V:1] c4[d4g4b4] | 
[V:2] [C4E4][G,4D4] | 
[V:1] [c4e4g4c'4][d4g4b4] | 
[V:2] [C4E4][G,4D4] | 
[V:1] [c8e8g8c'8] | 
[V:2] [C,8C8] | 
[V:1] [d8f8g8b8] | 
[V:2] [G,,8G,8] | 
[V:1] !fermata![E8G8c8] |]  
[V:2] !fermata![C,,8C,8] |]  

